X: 1
T: Knit the Pocky
T: Lady Mackintosh's Reel
T: Corney is Coming
R: reel
Z: 2005 John Chambers <jc:trillian.mit.edu>
B: Bremner's Collections, 1757
M: C|
L: 1/8
K: Dm
   A | "Dm"Ddd^c defd | "C"cBAG FGEC | "Dm"Ddd^c defg | "C"edce "Dm"~d2d :|
|: A | "Dm"defg  afdf | "C"edcg ecge | "Dm"defg  afdf | "C"ecge "Dm"~d2d :|
